images/tiktok.svg

<svg width="17" height="20" viewBox="0 0 17 20" fill="none" xmlns="http://www.w3.org/2000/svg">
<path d="M16.4689 4.5C16.3689 4.4 16.2689 4.4 16.0689 4.4C15.7689 4.4 15.5689 4.4 15.2689 4.3C13.5689 3.9 12.3689 2.6 12.2689 0.9V0.5C12.2689 0.2 12.0689 0 11.7689 0H8.66891C8.36891 0 8.16891 0.2 8.16891 0.5V13C8.16891 14.2 7.16891 15.1 6.06891 15.1C5.36892 15.1 4.76892 14.8 4.36892 14.3C3.66892 13.4 3.86891 12 4.76891 11.3C5.16891 11 5.56891 11 6.36892 11C6.46891 11 6.66891 11 6.76891 10.9C6.86891 10.8 6.96891 10.7 6.96891 10.5V7.2C6.96891 7 6.76891 6.7 6.56891 6.7C4.96891 6.5 3.36891 6.9 2.16891 7.9C1.06891 8.9 0.268915 10.3 0.0689147 12C-0.231085 13.9 0.468915 15.9 1.76891 17.2C2.96891 18.5 4.66891 19.1 6.26891 19.1C7.86891 19.1 9.46891 18.5 10.6689 17.3C11.8689 16.1 12.5689 14.5 12.5689 12.8V7.3C13.7689 7.9 15.0689 8.3 16.3689 8.3C16.6689 8.3 16.8689 8.1 16.8689 7.8V4.8C16.6689 4.7 16.5689 4.6 16.4689 4.5Z" fill="white"/>
</svg>

<svg width="17" height="20" fill="none" xmlns="http://www.w3.org/2000/svg"><path d="M16.469 4.5c-.1-.1-.2-.1-.4-.1-.3 0-.5 0-.8-.1-1.7-.4-2.9-1.7-3-3.4V.5c0-.3-.2-.5-.5-.5h-3.1c-.3 0-.5.2-.5.5V13c0 1.2-1 2.1-2.1 2.1-.7 0-1.3-.3-1.7-.8-.7-.9-.5-2.3.4-3 .4-.3.8-.3 1.6-.3.1 0 .3 0 .4-.1.1-.1.2-.2.2-.4V7.2c0-.2-.2-.5-.4-.5-1.6-.2-3.2.2-4.4 1.2-1.1 1-1.9 2.4-2.1 4.1-.3 1.9.4 3.9 1.7 5.2 1.2 1.3 2.9 1.9 4.5 1.9s3.2-.6 4.4-1.8c1.2-1.2 1.9-2.8 1.9-4.5V7.3c1.2.6 2.5 1 3.8 1 .3 0 .5-.2.5-.5v-3c-.2-.1-.3-.2-.4-.3z" fill="#fff"/></svg>
